svg/longhorn.svg

<svg id="Layer_1" data-name="Layer 1" xmlns="http://www.w3.org/2000/svg" viewBox="0 0 356.98001 294.48001"><defs><style>.cls-1{fill:#fff;}.cls-2{fill:#5f224a;}</style></defs><path class="cls-1" d="M305.04962,60.25259A17.66336,17.66336,0,0,0,285.014,75.171l-2.60633,17.71484L178.62,113.60721,74.83228,92.88589,72.226,75.17111a17.66334,17.66334,0,0,0-34.95019,5.14368L41.69507,110.342a17.66417,17.66417,0,0,0,14.01666,14.74963l73.12793,14.60029,9.96423,61.30938a35.372,35.372,0,0,0,35.28821,33.66248h9.05408A35.37306,35.37306,0,0,0,218.424,201.20486L229.66864,139.648c.01318-.0719.01587-.14313.02826-.215l71.83142-14.3413a17.66412,17.66412,0,0,0,14.0166-14.7497l4.41919-30.02722.004-.02661A17.66337,17.66337,0,0,0,305.04962,60.25259ZM183.43433,196.163a17.65959,17.65959,0,0,0-.28809,3.17469h-9.05408a17.5322,17.5322,0,0,0-.22943-2.834l-8.03424-49.42682,9.33307,1.86335a17.68063,17.68063,0,0,0,6.91693,0l10.36066-2.06855Z"/><path class="cls-2" d="M178.62,149.28177a17.67882,17.67882,0,0,1-3.45844-.34155l-9.33307-1.86335,8.03424,49.42682a17.5322,17.5322,0,0,1,.22943,2.834h9.05408a17.65959,17.65959,0,0,1,.28809-3.17469l9.00482-49.29132-10.36066,2.06855A17.679,17.679,0,0,1,178.62,149.28177Z"/><path class="cls-2" d="M313.86163,6.87H43.3786A36.423,36.423,0,0,0,7.06219,43.18643V251.55356A36.42308,36.42308,0,0,0,43.3786,287.87h270.483a36.423,36.423,0,0,0,36.31623-36.31647V43.18643A36.423,36.423,0,0,0,313.86163,6.87Zm6.10645,73.41815-.004.02661L315.54492,110.342a17.66412,17.66412,0,0,1-14.0166,14.7497L229.6969,139.433c-.01239.0719-.01508.14313-.02826.215L218.424,201.20486a35.37306,35.37306,0,0,1-35.27783,33.45893H174.0921a35.372,35.372,0,0,1-35.28821-33.66248l-9.96423-61.30938L55.71173,125.09164A17.66417,17.66417,0,0,1,41.69507,110.342L37.27576,80.31479A17.66334,17.66334,0,0,1,72.226,75.17111l2.60633,17.71478L178.62,113.60721,282.40771,92.88589,285.014,75.171a17.66331,17.66331,0,1,1,34.954,5.11713Z"/></svg>

<svg xmlns="http://www.w3.org/2000/svg" id="Layer_1" data-name="Layer 1" viewBox="0 0 356.98 294.48"><defs><style>.cls-2{fill:#5f224a}</style></defs><path d="M305.05 60.253a17.663 17.663 0 0 0-20.036 14.918l-2.606 17.715-103.788 20.721L74.832 92.886 72.226 75.17a17.663 17.663 0 0 0-34.95 5.144l4.42 30.027a17.664 17.664 0 0 0 14.016 14.75l73.128 14.6 9.964 61.31a35.372 35.372 0 0 0 35.288 33.662h9.054a35.373 35.373 0 0 0 35.278-33.46l11.245-61.556c.013-.072.016-.143.028-.215l71.831-14.341a17.664 17.664 0 0 0 14.017-14.75l4.42-30.027.003-.027a17.663 17.663 0 0 0-14.918-20.035m-121.616 135.91a17.66 17.66 0 0 0-.288 3.175h-9.054a17.532 17.532 0 0 0-.23-2.834l-8.034-49.427 9.334 1.863a17.68 17.68 0 0 0 6.916 0l10.361-2.068Z" style="fill:#fff"/><path d="M178.62 149.282a17.679 17.679 0 0 1-3.458-.342l-9.334-1.863 8.035 49.427a17.532 17.532 0 0 1 .23 2.834h9.053a17.66 17.66 0 0 1 .288-3.175l9.005-49.291-10.36 2.068a17.679 17.679 0 0 1-3.459.342" class="cls-2"/><path d="M313.862 6.87H43.379A36.423 36.423 0 0 0 7.062 43.186v208.368A36.423 36.423 0 0 0 43.38 287.87h270.483a36.423 36.423 0 0 0 36.316-36.316V43.186A36.423 36.423 0 0 0 313.862 6.87m6.106 73.418-.004.027-4.42 30.027a17.664 17.664 0 0 1-14.016 14.75l-71.831 14.341c-.012.072-.015.143-.028.215l-11.245 61.557a35.373 35.373 0 0 1-35.278 33.459h-9.054A35.372 35.372 0 0 1 138.804 201l-9.964-61.31-73.128-14.6a17.664 17.664 0 0 1-14.017-14.749l-4.42-30.027a17.663 17.663 0 0 1 34.951-5.144l2.606 17.715 103.788 20.721 103.788-20.721 2.606-17.715a17.663 17.663 0 1 1 34.954 5.117" class="cls-2"/></svg>
